X:1
T:Moy qui feiz iamais
T:Jacotin
T:Source : 29 Chansons à 4 parties---Paris---P.Attaignant---1530. Editor : André Vierendeels (20/12/17). Notes : Original clefs: G2, C2, C4, F4 Original note values have been halved Editorial accidentals above the staff Square brackets indicate ligatures 
T:Moy qui feiz iamais
T:©
T:©
T:©
C:Jacotin
Z:©
%%score [ 1 2 3 4 ]
L:1/8
Q:1/4=121
M:2/2
K:F
V:1 treble nm="Soprano" snm="S"
V:2 treble nm="Alto" snm="A"
V:3 treble-8 nm="Tenor" snm="T"
V:4 bass nm="Bass" snm="B"
V:1
 d4 d2 c2 | A2 f3 e d2- | d2 c2 d4- | d4 z2 d2 | f3 e d2 c2- | cB B4 A2 | B4 z2 B2 | G2 G2 FEFG | %8
w: Moy, qui ne|feiz ia- * *|* * mais,|_ que|luy _ _ com-|* * plai- *|re, moy,|tant a- my, _ _ _|
 A2 F2 G2 A2 | BAGF G2 A2- | AG G4 F2 | G4 z2 E2 | E2 E2 F4- | F2 F2 E2 F2- | FEFG A2 B2- | %15
w: _ moy, à tout|le _ _ _ mon- *|* * * de|sien, moy,|qui nay plus|_ puis- san- *|* * * * ce d'es-|
 BA A4 G2- | GF F2 E4 | D4 z4 | z2 G2 B2 B2 | A2 A2 G3 F/E/ | FEFG A4 | z2 E2 F4- | F2 F2 E2 E2 | %23
w: * tre mien, _|_ _ _ _||nau- ray ie|point ce bien, _ _|_ _ _ _ _|nau- ray|_ ie point ce|
 D2 B2 B2 A2- | AG G4 F2 | GFED E4 | D4 z4 | z2 G2 B2 B2 | A2 A2 G3 F/E/ | FEFG A4 | z2 E2 F4- | %31
w: bien de luy mal-|* * fai- *||re,|nau- ray ie|point ce bien, _ _|_ _ _ _ _|nau- ray|
 F2 F2 E2 E2 | D2 B2 B2 A2- | AG G4 F2 | G8 |] %35
w: _ ie pont ce|bien de luy mal-|* * fai- *|re.|
V:2
 G4 F2 E2 | FEFG A2 B2 | A3 G FEDC | D2 D2 F3 G | A2 G3 F F2- |"^b" F2 E2 F4 | D4 z2 _E2 | %7
w: Moy, qui ne|feiz _ _ _ _ ia-|mais, _ _ _ _ _|_ ia- mais _|_ que luy com-|* * plai-|re, moy,|
 _E2 E2 D4 | z2 C2 D2 F2 | FEDC D2 A,2 | C4 D4 | B,4 z2 C2 | C2 C2 D2 C2 | C2 B,2 C2 D2 | %14
w: tant a- my,|moy, à tout|le _ _ _ _ mon-|de _|sienn, moy,|qui nay plus puis-|san- * * *|
 C4 z2 F2- | F2 F2 D2 E2- | ED D4 C2 | D2 D2 F2 F2 | E2 E2 D4 | z2 A,2 C2 C2 | B,2 D2 C4 | %21
w: ce d'es-|* tre mien, d'es-|* * * tre|mien, nau- ray ie|point ce bien,|nau- ray ie|point ce bien,|
 G,4 z2 A,2 | A,G,A,B, CDEC | D4 B,2 F2- | FEDC DCB,A, | B,C D4 C2 | D2 D2 F2 F2 | E2 E2 D4 | %28
w: _ de|luy _ _ _ mal _ _ _|fai- re, mal|_ _ _ _ fai- * * *||re, nau- ray ie|point ce bien,|
 z2 A,2 C2 C2 | B,2 D2 C4 | G,4 z2 A,2 | A,G,A,B, CDEC | D4 B,2 F2- | FEDC D4 | B,8 |] %35
w: nau- ray ie|point ce bie,|_ de|luy _ _ _ mal _ _ _|fai- re, mal|_ _ _ _ fai-|re.|
V:3
 G4 B2 c2 | d4 z2 d2 | f2 e2 dcBA | GABc de f2- | fedc defd |"^b" edcB c4 | B4 z2 G2 | B2 c2 A4 | %8
w: Moy, qui ne|feiz ia-|mais que luy _ _ _|_ _ _ _ _ _ _||com- * * * plai-|re, moy,|tant a- my,|
 z2 A2 B2 c2 | dcBA B2 c2- | cB G2 A4 | G4 z2 G2 | G2 G2 A4- | A2 F2 G2 B2 | AGAB c2 d2- | %15
w: moy, à tout|le _ _ _ _ mon-|* * * de|sien, moy,|qui nay plus|_ puis- san- ce|d'es- * * * * *|
 dc A2 B4 | A4 z2 G2 | B2 B2 A2 A2 | G4 z2 d2 | f2 f2 e2 e2 | d3 c/B/ ABcA | BABc d2 D2 | %22
w: * * * tre|mien, nau-|ray ie point ce|bien, nau-|ray ie point ce|bien, _ _ _ _ _ _|_ _ _ _ _ de|
 DEFG ABcA | BABc d3 c/d/ | cBAG A4 | G4 z2 G2 | B2 B2 A2 A2 | G4 z2 d2 | f2 f2 e2 e2 | %29
w: luy _ _ _ _ _ _ _|_ _ _ _ mal _ _|_ _ _ _ fai-|re, nau-|ray ie point ce|bien, nau-|ray ie pont ce|
 d3 c/B/ ABcA | BABc d2 D2 | DEFG ABcA | BABc d3 c/d/ | cBAG A4 | G8 |] %35
w: bien, _ _ _ _ _ _|_ _ _ _ _ de|luy _ _ _ _ _ _ _|_ _ _ _ mal- * *|* * * * fai-|re.|
V:4
 z8 | D,4 F,2 G,2 | A,4 z2 G,2 | B,6 B,2 | A,2 B,3 A,G,F, | G,4 F,4 | B,,4 z2 _E,2 | %7
w: |Moy, qui ne|feiz ia-|mais que|luy com- * * *|* plai-|re, moy,|
 _E,2 C,2 D,3 E, | F,4 z2 F,2 | D,2 G,4 F,2 | E,4 D,4 | G,,4 z2 C,2 | C,2 C,2 F,3 E, | %13
w: tant a- my, _|_ moy,|à tout le|mon- de|sien, moy,|qui nay plus _|
 D,2 D,2 C,2 B,,2 | F,6 B,,2 | F,4 G,4 | D,4 z2 C,2 | G,2 G,2 D,2 F,2 | C,D,E,F, G,4 | D,4 z4 | %20
w: _ puis- san- ce|d'es- tre|_ _|mien, nau-|ray ie point ce|_ _ _ _ _|bien,|
 z2 D,2 F,2 F,2 | E,2 E,2 E,2 D,2 | F,3 E, D,2 C,2 | G,6 D,2 | F,2 G,2 D,4 | G,,4 z2 C,2 | %26
w: nau- ray ie|point ce bien de|luy _ _ mal|fai- *||re, nau-|
 G,2 G,2 D,2 F,2 | C,D,E,F, G,4 | D,4 z4 |"^#" z2 D,2 F,2 F,2 | E,2 E,2 E,2 D,2 | F,3 E, D,2 C,2 | %32
w: ray ie point ce|_ _ _ _ _|bien,|nau- ray ie|point ce bien de|luy _ _ mal|
 G,6 D,2 | F,2 G,2 D,4 | G,,8 |] %35
w: fai- *||re.|

